X: 1
T: the Lisnagun Jig
C: Brendan Ring
R: jig
%S: s:2 b:10(5+5)
Z: 2020 John Chambers <jc:trillian.mit.edu>
S: Tunes 'N Stuff with Audrey Knuth 2021-5-19
F: https://drive.google.com/drive/u/0/folders/118E94GvllJOH4htP_E10A3PFcOAkjJGj [simplified by JC]
M: 6/8
L: 1/8
P: Play A1A2 A1A2 B1B2 B1A2
K: C
"^A"|: "C"cAG c3 | "Am"deg e3 | "F"deg edc |[1,3 "Dm"dcA cAG :|[2,4 "G"dcA "C"c3  :|
"^B"|: "C"g3 edc | "Am"deg e3 | "F"deg edc |[1,3 "Dm"dcA cAG :|[2   "G"dcA "C"cde |] "^->A2"y|]
